X: 1342
T: Meclis-i Meyde Sâkıya
C: Kassamzâde Mehmet Efendi
O: Turkey
F: http://compmusic.upf.edu/node/140
N: nikriz--nakis--yuruksemai--meclis-i_meyde--kassamzade_mehmet_efendi
N: makam= nikriz
N: form= nakis
N: usul= yuruksemai = 6/8
M: 6/8
L: 1/16
K: C _7/8B ^3/4f ^c 
Q: 1/4=100
%%MIDI tuningsystem comma53
z4G4 d4d2{e}c2 d8  | e4g4 =f2e2{e}d2c2 d8  | \
w:  Mec lis_ i  *  *  mey  |  de  sa *  *  *  kı *  ya   | 
z4G4 d4d2{e}c2 d8  | g4=f4 e4d4 d3{e}cB4  | 
w:  Mec lis_ i  *  *  me   |  mey  | 
e2=f2e4 d4c4 B6.A2  | d2c2B2A2 G12z4  | \
w:  de  *  sa *  kı ya   |  vay    | 
z4d4 d4e4 f8  | d8 e8 f8  | 
w:  Ba na  ne  gül   |   | 
g4g4 ^1/4f4=f4 e4.d4  | c4d16z4  | z4d4 d4e4 e8  | \
w:  ne  lâ *  le  ver   |  vay    |  Derd_ i  ga me   | 
e4g8=f4 e4d4  | z4d4 d4d4 d8  | 
w:  de va  i çün   |  Derd_ i  ga me   | 
g4=f4 e4d4 d3cB4  | e2=f2e4 d4c4 BAB4A2  | \
w:  de   |  de *  va  *  i çün   | 
d2{e}c2B2A2 G12z4  | 
w:  vay    | 
z4d8e4 f8  | d8 e8 .f8  | g4g4 ^1/4f4=f4 e4d4  | \
w:  Nim ce  bir   |   |  pi ya  *  le  ver   | 
c4d16z4  | z4d4 d4e4 e8  | 
w:  vay    |  Be  li  be  li   | 
e4g4 =f4e4 .d8  | g4a4 g4^2/4f4 e8  | \
w:  be  *  *  *  li   |  câ *  *  nâ  | 
e4g4 =f4e4 d8  | z4d4 d4d4 d8  | e4=f4 e4d4 c4B4  | 
w:  nım    |  Be  li  be  li   |  be  *  *  *  li   | 
e4d8{e}d2c2 {d}B8  | d2c2B2A2 G8 e4d4  | \
w:  sul *  *  ta  |  nım  *  *  *  *  nım   | 
c4d12 d4{e}d2{e}=c2  | e6d2 =c8 c6_2/4B2  | 
w:  yâr    |  Yâr   | 
d6=c2 _3/4B8 B6.A2  | A12G4 d8  | d8 d8 d4{e}d2{e}=c2  | \
w:  yâr   |  yâr   |  dost   | 
e6d2 =c8 c6_2/4B2  | d6=c2 _3/4B8 B6A2  | 
w:  dost   |  dost   | 
A12G4 c8  | z4G4 =c4c4 c8  | e4e4 _3/4d8 d6=c2  | \
w:  dost   |  Mun ta zır_ ı   |  ce ma  | 
=c12_3/4B4 e4_3/4d2c2  | =c16-=c4z4  | 
w:  *  *  *  li  |  nem   | 
z4G4 =c4c4 c8  | e4e4 _3/4d8 d4{e}d2{e}=c2  | \
w:  Yo lun da  pâ  |  yi ma  | 
=c12_2/4B4 e4_3/4d2c2  | =c16-=c4z4  | \
w:  *  *  *  li  |  nem    | 
z4d4 d4e4 e8  | 
w:  Ba na  te rah  | 
e4e4 f4g4 e8  | e8 d8 =c8  | =c4d4 c4_2/4B4 A8  | \
w:  hüm_ ey *  le  kim   |   |   | 
A4_1/4B4 A4G4 F8  | z4F4 =c4c4 c8  | 
w:  kim   |  â şık_ ı  bî   | 
e4e4 _3/4d8 d4{e}=d2{e}=c2  | =c12_2/4B4 e4_3/4d2c2  | \
w:  me ca  |  *  *  *  li  | 
=c8 z4c2_3/4d2 c4_2/4B4  | =c8 _3/4B4A8z4  | 
w:  ne  nem   |  Gel   | 
=c6_3/4d2 e4{g}=f4 e4_7/8d4  | e4g4 =f4e4 (3d2d2c2=B2c2  | \
w:  gel   |  gel   | 
d16-d4z4  | z4g4 =f4e4 d2c2B4  | 
w:  gel   |  Nim *  ce  bir   | 
e2=f2e4 d4c4 BAB4A2  | (3d2d2c2B2A2 G12z4  | \
w:  pi *  ya *  le  ver   |  vay    | 
z4f4 f4f4 f8  | 
w:  Seb ze  i  pâ  | 
f4a8g4 f8  | z4d4 d4d4 d8  | d8 e8 f8  | \
w:  yi ma li yem   |  seb ze  i  pâ  |   | 
f4a8g4 g6a2  | a16 z8  | =b8 a4g4 f4e4  | 
w:  yi ma li yem   |  of   |  Ben de  bu  gül  | 
g4g4 f4e4 d4e4  | e16 z8  | e4g4 ^2/4f4e4 d4{e}c4  | \
w:  şe nin  *  fe lek   |  yâr   |  yâr   | 
d16 z8  | z4d4 d4e4 e8  | 
w:  yâr    |  Derd_ i  ga me   | 
e4g8=f4 e4d4  | z4d4 d4d4 d8  | g4=f4 e4d4 d3cB4  | \
w:  de va  i çün   |  Derd_ i  ga me   |  de   | 
e2=f2e4 d4c4 BAB4A2  | 
w:  de *  va  *  i çün   | 
d2{e}c2B2A2 G12z4  | z4d8e4 f8  | d8 e8 .f8  | \
w:  vay    |  Nim ce  bir   |   | 
g4g4 ^1/4f4=f4 e4d4  | c4d16z4  | 
w:  pi ya  *  le  ver   |  vay    | 
z4d4 d4e4 e8  | e4g4 =f4e4 .d8  | g4a4 g4^2/4f4 e8  | \
w:  Be  li  be  li   |  be  *  *  *  li   |  câ *  *  nâ  | 
e4g4 =f4e4 d8  | z4d4 d4d4 d8  | 
w:  nım    |  Be  li  be  li   | 
e4=f4 e4d4 c4B4  | e4d8{e}d2c2 {d}B8  | \
w:  be  *  *  *  li   |  sul *  *  ta  | 
d2c2B2A2 G8 e4d4  | c4d12 d4{e}d2{e}=c2  | 
w:  nım  *  *  *  *  nım   |  yâr    | 
e6d2 =c8 c6_2/4B2  | d6=c2 _3/4B8 B6.A2  | \
w:  Yâr   |  yâr   | 
A12G4 d8  | d8 d8 d4{e}d2{e}=c2  | e6d2 =c8 c6_2/4B2  | 
w:  yâr   |  dost   |  dost   | 
d6=c2 _3/4B8 B6A2  | A12G4 c8  | z4G4 =c4c4 c8  | \
w:  dost   |  dost   |  Mun ta zır_ ı   | 
e4e4 _3/4d8 d6=c2  | =c12_3/4B4 e4_3/4d2c2  | 
w:  ce ma  |  *  *  *  li  | 
=c16-=c4z4  | z4G4 =c4c4 c8  | e4e4 _3/4d8 d4{e}d2{e}=c2  | \
w:  nem   |  Yo lun da  pâ  |  yi ma  | 
=c12_2/4B4 e4_3/4d2c2  | =c16-=c4z4  | 
w:  *  *  *  li  |  nem    | 
z4d4 d4e4 e8  | e4e4 f4g4 e8  | e8 d8 =c8  | \
w:  Ba na  te rah  |  hüm_ ey *  le  kim   |   | 
=c4d4 c4_2/4B4 A8  | A4_1/4B4 A4G4 F8  | 
w:   |  kim   | 
z4F4 =c4c4 c8  | e4e4 _3/4d8 d4{e}=d2{e}=c2  | \
w:  â şık_ ı  bî   |  me ca  | 
=c12_2/4B4 e4_3/4d2c2  | =c8 z4c2_3/4d2 c4_2/4B4  | 
w:  *  *  *  li  |  ne  nem   | 
=c8 _3/4B4A8z4  | =c6_3/4d2 e4{g}=f4 e4_7/8d4  | \
w:  Gel   |  gel   | 
e4g4 =f4e4 (3d2d2c2=B2c2  | d16-d4z4  | 
w:  gel   |  gel   | 
z4g4 =f4e4 d2c2B4  | e2=f2e4 d4c4 BAB4A2  | \
w:  Nim *  ce  bir   |  pi *  ya *  le  ver   | 
(3d2d2c2B2A2 G12z4  | 
w:  vay    | 
|


